X: 168
M: 6/8
L: 1/8
K: Bm
e> f d c> B A | B> c B
d> e f | A F F F2 F | B> c B
d> e f | e> f d c> B A |
f> e d c> B A | F B B B2 |]
d | F <D D F <E E | A F F
f> e d c3/ B A/ | F B B B2 |]

